img/icons/mono/about-finance.svg

<svg width="33" height="32" viewBox="0 0 33 32" fill="none" xmlns="http://www.w3.org/2000/svg">
<path d="M23.2246 20H23.3579" stroke="#EE5238" stroke-width="2" stroke-linecap="round" stroke-linejoin="round"/>
<path d="M28.625 13.3333V26.6667C28.625 27.0203 28.4845 27.3594 28.2345 27.6095C27.9844 27.8595 27.6453 28 27.2917 28H5.95833C5.60471 28 5.26557 27.8595 5.01552 27.6095C4.76548 27.3594 4.625 27.0203 4.625 26.6667V13.3333C4.625 12.9797 4.76548 12.6406 5.01552 12.3905C5.26557 12.1405 5.60471 12 5.95833 12H27.2917C27.6453 12 27.9844 12.1405 28.2345 12.3905C28.4845 12.6406 28.625 12.9797 28.625 13.3333ZM23.5717 12L25.9583 8.58667L19.4117 4L13.7983 12H23.5717ZM12.745 4L7.13167 12H13.7983L17.2117 7.13333L12.745 4Z" stroke="#EE5238" stroke-width="2" stroke-linecap="round" stroke-linejoin="round"/>
</svg>

<svg width="33" height="32" fill="none" xmlns="http://www.w3.org/2000/svg"><path d="M23.225 20h.133m5.267-6.667v13.334A1.334 1.334 0 0127.292 28H5.958a1.334 1.334 0 01-1.333-1.333V13.333A1.333 1.333 0 015.958 12h21.334a1.334 1.334 0 011.333 1.333zM23.572 12l2.386-3.413L19.412 4l-5.614 8h9.774zM12.745 4l-5.613 8h6.666l3.414-4.867L12.745 4z" stroke="#EE5238" stroke-width="2" stroke-linecap="round" stroke-linejoin="round"/></svg>
